currency-eur.svg

<svg fill="currentColor" viewBox="0 0 24 24"><path d="M15 18.5c-2.5 0-4.68-1.42-5.76-3.5H15l1-2H8.58c-.05-.33-.08-.66-.08-1s.03-.67.08-1H15l1-2H9.24A6.49 6.49 0 0 1 15 5.5c1.61 0 3.09.59 4.23 1.57L21 5.3A8.96 8.96 0 0 0 15 3c-3.92 0-7.24 2.5-8.5 6H3l-1 2h4.06c-.06.33-.06.66-.06 1s0 .67.06 1H3l-1 2h4.5c1.26 3.5 4.58 6 8.5 6 2.31 0 4.41-.87 6-2.3l-1.78-1.77c-1.13.98-2.6 1.57-4.22 1.57"/></svg>

<svg  viewBox="0 0 24 24" fill="currentColor"><path  d="M15 18.5C12.5 18.5 10.32 17.08 9.24 15H15L16 13H8.58C8.53 12.67 8.5 12.34 8.5 12S8.53 11.33 8.58 11H15L16 9H9.24C10.32 6.92 12.5 5.5 15 5.5C16.61 5.5 18.09 6.09 19.23 7.07L21 5.3C19.41 3.87 17.3 3 15 3C11.08 3 7.76 5.5 6.5 9H3L2 11H6.06C6 11.33 6 11.66 6 12S6 12.67 6.06 13H3L2 15H6.5C7.76 18.5 11.08 21 15 21C17.31 21 19.41 20.13 21 18.7L19.22 16.93C18.09 17.91 16.62 18.5 15 18.5Z"/></svg>
